X: 146203
T: SCHOTTISCHE
R: Schottische.
%R: shottish
B: James Kerr "Merry Melodies" v.1 p.46 s.2 #3
Z: 2016 John Chambers <jc:trillian.mit.edu>
M: C
L: 1/8
K: G
(dc) |\
B2 (3(BAG) A2 (3(AGF) | G2D2- DGBd |\
[1,3 e2F2- FAcf | g2d2- d2 :|\
[2,4 e2F2- FGAB | (A4 G2) :|\
|: (gf) |\
edef gfga | b2d2- d2ed |\
[1,3 cBcd eABc | d2B2- B2 :|\
[2,4 cBAG FGAB | (A4 G2) :|

%%sep 1 1 500
%%sep 1 1 500

